X:1
T:Susann'un jour
T:Susann'un jour
T:Jean de Castro
T:Source : Chansons, madrigaux et motetz à 3 parties---Anvers---P.Phalèse---1582. Editor : André Vierendeels (09/10/15).
T:Notes Original clefs : G2, C1, C3 Editorial accidentals above the staff
C:Jean de Castro
%%score [ 1 2 3 ]
L:1/8
Q:1/4=146
M:2/2
K:F
V:1 treble nm="Superius 1" snm="S 1"
V:2 treble nm="Superius 2" snm="S 2"
V:3 treble-8 nm="Tenor" snm="T"
V:1
 G8 | B8- | B4 c4 | d8- | d8 | z4 c4 | B4 A4 | G4 d4 | d4 e4 | f4 d4 | d6 d2 | _e4 d4 | c8 | %13
w: Su-|sann'|_ un|jour,|_|Su-|sann' un|jour,- Su-|sann'- un|jour d'a-|mour sol-|li- ci-|té-|
 B4 d4 | f4 d4 | c3 B c4 | d4 d4 | d8- | d4 d4 | c8- | c8 | B8- | B8 | A8- | A4 B4 | c8 | A8 | %27
w: e, d'a-|mour sol-|li- ci- té-|e, par|deux|_ veil-|lards|_|con-||voi-|* tans|sa|beau-|
 B4 G4 | B8- | B4 c4 | d8- | d8 | z4 c4 | B4 A4 | G4 d4 | d4 e4 | f4 d4 | d4 d4 | e4 d4 | c8 | %40
w: té, fut|en|_ son|coeur,|_|fut|en son|coeur, fut|en son|coeur tri-|st'et des-|con- for-|té-|
 B4 d4 | f4 d4 | c3 B c4 | d4 d4 | d8- | d4 d4 | c8- | c8 | B8- | B8 | A8- | A4 B4 | c8 | A8 | %54
w: e, tri-|st'et des-|con- for- té-|e, voy-|ant|_ l'ef-|fort|_|fait|_|à|_ sa|chas-|te-|
 G4 d4 | d8 | _e8 | d4 z2 d2 | e4 f4 | d8 | z4 d4 | d4 d4 | c4 B4 | A8- | A8 | z8 | z8 | d8 | %68
w: té, el-|le|leur|dit, el-|le leur|dit:|"Si|par des-|loy- aul-|té,|_|||de|
 d4 d4 | c4 c4 | d4 f4 | e2 d2 c4 | d4 z2 A2 | A4 A4 | A4 z2 A2 | =B4 z2 d2 | c4 ^c4 | d8- | d8 | %79
w: ce cors|mien vous|a- vez|jou- ys- san-|ce, c'est|fait de|moy, c'est|fait, c'est|fait de|moy,|_|
 z8 | B8 | B4 A4 | B4 c4 | d8 | d8 | z8 | d8 | c4 B4 | A2 A2 =B4 | z2 A2 =B4 | z8 | =B8 | c4 A4 | %93
w: |si|je fais|re- si-|stan-|ce,||vous|me fe-|rez mou- rir,|mou- rir||en|des- hon-|
 B4 G4 | B8- | B4 c4 | d8- | d8 | z4 c4 | B4 A4 | G4 d4 | d4 e4 | f4 d4 | d6 d2 | e4 d4 | c8 | %106
w: neur, mais|j'ay-|* me|mieux,|_|mais|j'ay- me|mieux,- mais|j'ay- me|mieux pe-|rir en|in- no-|cen-|
 B4 d4 | f4 d4 | c3 B c4 | d4 d4 | d8- | d4 d4 | c8- | c8 | B8- | B8 | A8- | A4 B4 | c8 | A8 | %120
w: ce, pe-|rir en|in- no- cen-|ce, que|d'of-|* fen-|ser|_|par|_|pe-|* chez|le|Sei-|
 G8- | G8- | G8 |] %123
w: gneu."|_||
V:2
 z8 | G8 | G4 A4 | B8- | B8 | z4 G4 | G4 ^F4 | G4 G4 | B4 c4 | d4 A4 | B6 G2 | c4 B4- | B4 A4 | %13
w: |Su-|sann' un|jour,|_|Su-|sann' un|jour, Su-|sann' un|jour d'a-|mour sol-|li- ci-|* té-|
 B4 B4 | d4 B4 | A3 G A4 | B8 | z4 B4 | A4 B4 | G4 A4 | G4 A4 | D4 d4 | d4 d4 | c8- | c4 B4 | %25
w: e, d'a-|mour sol-|li- ci- té-|e,|par|deux veil-|lards, par|deux veil-|lards con-|voi- tans|sa|_ beau-|
 A4 G4 | G4 ^F4 | G8 | z4 G4 | G4 A4 | B8- | B8 | z4 G4 | G4 ^F4 | G4 G4 | B4 c4 | d4 A4 | B6 G2 | %38
w: té, fut|en son|coeur,|fut|en son|coeur,|fut|fut|en son|coeur, fut|en son|coeur tri-|st'et des-|
 c4 B4- | B4 A4 | B4 B4 | d4 B4 | A3 G A4 | B8 | z4 B4 | A4 B4 | G4 A4 | G4 A4 | D4 d4 | d4 d4 | %50
w: con- for-|* té-|e, tri-|st'et des-|con- for- té-|e,|voy-|ant l'ef-|fort, voy-|ant l'ef-|fort,- voy-|ant l'ef-|
 c8- | c4 B4 | A4 G4 |"^#" G4 F4 | G4 z2 B2 | A4 =B4 | c8 | z4 A4 | A8 | B8 | A4 z2 B2 | B4 B4 | %62
w: fort|_ fait|à sa|chas- te-|té, el-|le leur|dit,|el-|le|leur|dit: "Si|par des-|
 A4 G4 | ^F8- | F8 | G8 | G4 G4 | F2 B4 A2 | B6 A2- | A2 A2 G2 G2 | z2 A2 A2 B2 | G3 G E4 | D8 | %73
w: loy- aul-|té,|_|de|ce cors|mien vous a-|vez jou-|* ys- san- ce,|vous a- vez|jou- ys- san-|ce,|
 z4 F4 | F8 | z4 D4 | F4 E4 | D4 A4 | B4 A4 | =B2 B2 c4 | d4 d4 | d4 c4 | B4 G4 | B8 | A4 z2 B2 | %85
w: c'est|fait,|c'est|fait de|moy, si|je fais|re- si- stan-|ce, si|je fais|re- si-|stan-|ce, vous|
 A4 G4 | ^F4 z2 G2 | E4 z2 G2 | ^F2 F2 G4 | z2 ^F2 G4 | z8 | G8 | G4 ^F4 | G8 | z4 G4 | G4 A4 | %96
w: me fe-|rez mou-|rir, vous|me fe- rez|mou- rir||en|des- hon-|neur,|mais|j'ay- me|
 B8- | B8 | z4 G4 | G4 ^F4 | G4 G4 | B4 c4 | d4 A4 | B6 G2 | c4 B4- | B4 A4 | B4 B4 | d4 B4 | %108
w: mieux,|_|mais|j'ay- me|mieux,- mais|j'ay- me|mieux pe-|rir en|in- no-|* cen-|ce, pe-|rir en|
 A3 G A4 | B8 | z4 B4 | A4 B4 | G4 A4 | G4 A4 | D4 d4 | d4 d4 | c8- | c4 B4 | A4 G4 | G4 ^F4 | %120
w: in- no- cen-|ce,|que|d'of- fen-|ser, que|d'of- fen|ser,- que|d'of- fen-|ser|_ per|pe- chez|le Sei-|
 G4 _E4- | E4 _E4 | D8 |] %123
w: gneur, le|_ Sei-|gneur."|
V:3
 z8 | z8 | z8 | G8 | B8- | B4 c4 | d8 | z4 g4 | g4 e4 | d8 | z8 | z8 | f8 | B4 B4 | B6 B2 | f8 | %16
w: |||sann'|un|_ jour,|Su-|sann'|un jour|d'a-|||mour|sol- li-|ci- té-|e,|
 B8 | z4 g4 | ^f4 g4 | c4 f4 | e4 f4 | B4 G2 A2 | B2 c2 d2 e2 | f8- | f4 d4 | c4 c4 | d8 | G8- | %28
w: par|deux|veil- lards,|par deux|veil- lards|con- voi- *|||* tans|sa beau-|té,|fut|
 G8 | z8 | G8 | B8- | B4 c4 | d8 | z4 g4 | g4 e4 | d8 | z8 | z8 | f8 | B4 B4 | B4 B4 | f8 | B8 | %44
w: _||en|son|_ coeur,|fut|en|son coeur|tri-|||st'et|des- con-|for- té-|e,|voy-|
 z4 g4 | ^f4 g4 | c4 f4 | e4 f4 | B4 G2 A2 | B2 c2 d2 e2 | f8- | f4 d4 | c8 | d6 d2 | G4 z2 g2 | %55
w: ant|l'ef- fort,|voy- ant|l'ef- fort|fait à _|_ _ _ _||* sa|chas-|te- té,|el- le|
 ^f4 g4 | c8 | z4 d4 | ^c4 d4 | G2 A2 B2 c2 | d4 B4 | B4 B4 | F4 G4 | d4 z2 d2 | d4 d4 | %65
w: leur dit,|el-|le|leur dit:|"Si _ _ _|_ par|des- loy-|aul- té,|de ce|cors mien|
"^b" c4 =B4 |"^b" c4 e4 | d2 G2 d4 | G2 g2 g2 d2 | f2 f2 c4 | g2 d2 d2 B2 | c2 G2 A4 | d8- | d8 | %74
w: vous a-|vez jou-|ys- san- ce,|vous a- vez jou-|ys- san- ce,|vous a- vez jou-|ys- san- ce,|c'est|_|
 z4 d4 | G4 G4 | A8 | z4 d4 | g4 d4 | g2 g2 f4 | B4 B4 | B4 f4 | g4 c4 | g8 | d4 z2 g2 | f4 c4 | %86
w: fait|de moy,|si|je|fais re-|si- stan- ce,|si je|fais re-|si- stan-|ce,|vous me|fe- rez|
 d4 z2 G2 | A4 z2 G2 | d4 z2 G2 | d4 z2 G2 | d4 z4 | z4 G4 | c4 d4 | G8- | G8 | z8 | G8 | B8- | %98
w: mou- rir,|vous me|fe- rez|mou- rir|en|des-|hon- neur,|mais|_||j'ay-|me|
 B4 c4 | d8 | z4 g4 | g4 e4 | d8 | z8 | z8 | f8 | B4 B4 | B4 B4 | f8 | B8 | z4 g4 | ^f4 g4 | %112
w: * mieux,|mais|j'ay-|me mieux|pe-|||rir|en in-|no- cen-|ce,|que|d'of-|fen- ser,|
 c4 f4 | e4 f4 | B4 G2 A2 | B2 c2 d2 e2 | f8- | f4 d4 | c8 | d6 d2 | G4 c4- | c4 c4 | G8 |] %123
w: que d'of-|fen- ser,|par pe- _|_ _ _ _||* chez|le|Sei- gneue,|* Sei-|_ gneur."||

